public/assets/icons/ic_profile2.svg

<svg width="45" height="45" viewBox="0 0 45 45" fill="none" xmlns="http://www.w3.org/2000/svg">
<g clip-path="url(#clip0_277_3908)">
<rect width="45" height="45" rx="22.5" fill="#FFE75C"/>
<path d="M18.2609 14.6175C18.6529 13.4676 18.0138 12.2093 16.8336 11.8072C15.6534 11.4048 14.3789 12.011 13.9871 13.1609C13.5951 14.311 14.2341 15.5693 15.4144 15.9715C16.5946 16.3736 17.8691 15.7676 18.2609 14.6175Z" fill="#2A39D4"/>
<path d="M30.7369 36.7916C32.7074 37.122 34.9815 38.2478 37.5717 41.9161C39.4493 40.4475 40.2321 40.9887 42.2398 43.2009C44.2474 45.413 48.6429 49.6556 49.6756 51.0333C50.7084 52.411 51.3136 55.1644 47.8167 56.7486C44.3197 58.3329 38.9535 53.9684 36.1754 51.4836C33.3973 48.9988 29.6071 46.0182 29.6071 46.0182L30.7369 36.7916Z" fill="#2331B5"/>
<path d="M41.4344 42.342C41.9549 43.5276 42.6365 45.2482 42.9175 46.6796C43.3182 48.712 42.3804 49.7655 40.6289 50.8974C39.0302 51.9301 38.237 51.6554 37.4748 50.8788C37.4292 50.8393 37.3705 50.8187 37.3104 50.8205C37.2503 50.8224 37.1931 50.8468 37.1501 50.8891C37.1072 50.9312 37.0817 50.988 37.0786 51.0481C37.0758 51.108 37.0954 51.1671 37.134 51.2134C37.5176 51.6478 38.0406 51.9349 38.6129 52.0251C39.2739 52.1057 40.0113 51.864 40.885 51.2981C42.4217 50.3046 43.8821 49.1231 43.3843 46.5866C43.1858 45.6642 42.9152 44.7586 42.5746 43.8787C42.4436 43.527 42.2441 43.2047 41.988 42.9307C41.7897 42.7117 41.5604 42.47 41.4344 42.342Z" fill="#3442D9"/>
<path d="M23.5139 35.1155C30.7885 33.966 35.8465 27.7253 34.8117 21.1763C33.7769 14.6276 27.0408 10.2506 19.7663 11.4003C12.4919 12.5497 7.43366 18.7905 8.46869 25.3394C9.50351 31.8881 16.2396 36.265 23.5139 35.1155Z" fill="#FF78B9"/>
<path d="M12.5206 21.2324C12.2005 23.8473 13.1713 26.3177 14.6874 26.7535C16.0258 27.1377 16.7529 25.8529 17.1144 23.3351C17.2073 22.6824 17.3209 22.0297 17.4448 21.3811C17.8869 19.0409 17.197 17.6797 15.8441 17.2914C14.328 16.8555 12.8387 18.6195 12.5206 21.2324Z" fill="white"/>
<path d="M24.0261 22.8144C23.801 22.4281 23.6948 21.9838 23.7208 21.5375C23.7469 21.0911 23.9043 20.6623 24.1728 20.3048C26.7795 16.8822 28.7768 17 30.2 17.2437C31.7718 17.5205 32.5237 18.9622 30.9477 22.1885C32.3935 24.188 31.4909 25.7495 29.0887 25.6999C27.0191 25.6421 25.4596 25.2847 24.0261 22.8144Z" fill="#D11583"/>
<path d="M35.1278 60.9441C36.5592 52.0521 33.8472 50.5628 33.8988 47.8839C33.9505 45.2049 34.1198 41.5716 31.6639 37.3497C31.6639 37.3497 32.4344 33.7805 32.9301 31.3721C32.9495 31.2781 32.9474 31.1811 32.9237 31.0879C32.9001 30.995 32.8557 30.9084 32.794 30.8351C32.7322 30.7615 32.6543 30.7033 32.5668 30.6643C32.479 30.6252 32.3835 30.6066 32.2877 30.6099C30.3459 30.6746 28.4023 30.5536 26.4836 30.2485C23.1788 29.7466 18.7338 28.8625 13.3758 32.9336L14.6709 35.2966L14.5408 35.4701C14.4495 35.5918 14.3859 35.7318 14.3543 35.8805C14.3229 36.0294 14.3243 36.1833 14.3584 36.3314C14.3927 36.4795 14.459 36.6185 14.5525 36.7383C14.6461 36.8583 14.7647 36.9562 14.9002 37.0254L15.1769 37.168C15.1769 37.168 10.4944 39.2686 11.0707 45.3743C11.647 51.4799 9.56287 57.0713 11.5416 59.11C11.9448 59.5185 12.4453 59.8178 12.9958 59.98C13.5464 60.1423 14.1291 60.1619 14.6895 60.0374L24.1082 66.6305C27.2871 71.1333 31.9283 76.3013 31.9283 76.3013L26.7439 85.4143L33.8988 79.3272C38.5979 70.8999 40.1821 80.0605 41.5206 76.1608C42.859 72.2611 40.4444 69.5429 35.1278 60.9441Z" fill="#2331B5"/>
<path d="M32.8354 31.8198C30.8195 32.2329 28.2624 31.9045 25.2322 31.4459C21.9791 30.9523 19.1472 30.5247 13.6653 33.4619L14.3532 34.7177C19.4013 32.0098 21.8985 32.3857 25.0154 32.8587C27.9071 33.2966 30.4002 33.6126 32.5173 33.3214C32.6289 32.8174 32.7363 32.3052 32.8354 31.8198Z" fill="#3442D9"/>
<path d="M27.9506 59.6134C28.0131 59.621 28.0763 59.6035 28.1261 59.5648C28.1761 59.5262 28.2087 59.4694 28.217 59.4068C28.8119 55.0548 27.6862 50.395 27.1842 48.5938C26.6677 46.7407 26.4495 44.8168 26.5377 42.8951C26.641 40.3834 26.3518 38.3902 26.1246 37.6053L27.9216 30.4276L27.4321 30.3739L25.6165 37.6197L25.6372 37.6838C25.8437 38.3633 26.1536 40.3689 26.0503 42.8786C25.96 44.8507 26.1845 46.8245 26.7154 48.726C27.2173 50.4982 28.3244 55.0816 27.7481 59.3449C27.7436 59.3758 27.7454 59.4072 27.7533 59.4376C27.7611 59.4678 27.7748 59.4961 27.7936 59.521C27.8124 59.546 27.8359 59.5671 27.8628 59.5828C27.8898 59.5987 27.9196 59.609 27.9506 59.6134Z" fill="black"/>
<path d="M21.6133 59.2914C21.7496 58.4817 21.0391 55.3896 20.0063 53.0845C18.9736 50.7794 18.4923 49.1807 17.1848 49.7342C15.8774 50.2878 12.7997 51.7998 12.7997 51.7998C12.7997 51.7998 15.3693 49.063 16.7945 47.4043C19.9217 43.7608 19.6862 38.1797 15.1772 37.1862C11.2093 38.787 10.4141 40.491 6.13638 46.2745C1.8587 52.058 -1.05575 58.4611 2.39367 61.6502C5.84308 64.8394 9.76344 63.41 16.9989 61.2474C20.0972 60.3221 21.477 60.1155 21.6133 59.3059" fill="#2331B5"/>
<path d="M35.9539 39.7288C35.8107 39.7288 35.6734 39.6728 35.5711 39.5728C35.4689 39.4729 35.4098 39.3367 35.4065 39.1938C35.257 33.4085 35.6358 27.6217 36.5384 21.9054C36.5539 21.8108 36.5467 21.7137 36.5175 21.6224C36.4882 21.5311 36.4378 21.4481 36.3705 21.3799C36.3029 21.3118 36.2203 21.2608 36.1292 21.2306C36.0381 21.2007 35.9413 21.1926 35.8465 21.2073L28.8567 22.2793C28.7838 22.2948 28.7084 22.2954 28.6353 22.2807C28.5622 22.2663 28.4928 22.2369 28.4312 22.1944C28.3699 22.152 28.3178 22.0975 28.2784 22.0343C28.2387 21.9711 28.2125 21.9005 28.2011 21.8267C28.19 21.753 28.1939 21.6778 28.2127 21.6057C28.2315 21.5334 28.265 21.4659 28.3108 21.407C28.3569 21.3483 28.4143 21.2996 28.4798 21.2637C28.5451 21.2279 28.6171 21.206 28.6915 21.199L35.6812 20.1249C35.9468 20.0842 36.2183 20.107 36.4733 20.1912C36.7284 20.2757 36.96 20.4191 37.149 20.6101C37.338 20.8012 37.479 21.0342 37.5606 21.2903C37.6424 21.5462 37.6623 21.8178 37.6187 22.083C36.727 27.7324 36.3531 33.4514 36.5012 39.169C36.5039 39.314 36.4494 39.4543 36.349 39.5592C36.2488 39.6639 36.1113 39.725 35.9663 39.7288H35.9539Z" fill="#66BCFF"/>
<path d="M31.5343 39.1175C32.0486 40.4394 32.9512 42.8168 33.1124 43.5728C33.0483 44.7192 32.7591 46.6711 32.6641 47.2908C32.6567 47.3434 32.6687 47.3971 32.698 47.4415C32.7273 47.4862 32.7717 47.5184 32.8232 47.5324C34.6388 48.0447 35.4443 48.181 36.1982 48.1645C37.0804 48.1046 37.9583 47.9937 38.8276 47.8319C38.869 47.8247 38.9086 47.8094 38.9441 47.7867C38.9797 47.764 39.0102 47.7346 39.0344 47.6999C39.0584 47.6654 39.0753 47.6264 39.0842 47.5853C39.0929 47.544 39.0935 47.5014 39.0858 47.4601C38.6624 45.1509 38.4125 43.4716 38.4125 43.4716C38.5984 40.6956 38.8524 38.5144 38.9412 37.7666C38.9501 37.6941 38.9311 37.6208 38.8875 37.562C38.8442 37.5031 38.7797 37.4632 38.7078 37.4506C36.2024 36.9921 35.3245 36.8661 34.3909 36.8206C33.4573 36.7752 33.0979 37.273 31.6458 38.6342C31.5812 38.6945 31.5362 38.7728 31.5161 38.8589C31.4963 38.9448 31.5027 39.0349 31.5343 39.1175Z" fill="white"/>
<path d="M38.7774 47.6049C38.7774 47.6049 39.0604 47.7515 38.8269 47.83C38.8685 47.8228 38.9081 47.8075 38.9434 47.7848C38.979 47.762 39.0097 47.7327 39.0337 47.698C39.0577 47.6635 39.0746 47.6245 39.0835 47.5834C39.0922 47.5421 39.0928 47.4995 39.0851 47.4582C38.6617 45.149 38.4118 43.4697 38.4118 43.4697C38.5977 40.6936 38.8517 38.5124 38.9405 37.7647C38.9496 37.6922 38.9304 37.6189 38.8869 37.56C38.8435 37.5012 38.779 37.4613 38.7072 37.4487C36.2037 36.9902 35.3238 36.8642 34.3902 36.8187C34.1938 36.8061 33.9967 36.8278 33.8077 36.8828L35.582 42.2201L34.8529 46.8675L38.7774 47.6049Z" fill="#FFC619"/>
<path d="M35.1348 47.0364C35.3992 48.7364 35.6574 49.9633 36.655 50.3061C37.6527 50.649 39.0201 49.7464 40.7964 48.3563C42.5727 46.9662 42.1762 45.5658 41.6453 44.2418C41.1145 42.9178 41.2136 41.3253 40.4556 40.5714C39.498 39.6852 38.457 38.8937 37.347 38.2084C36.4381 37.6569 35.8805 37.5887 34.2218 39.0553C32.5632 40.5218 31.6441 41.3521 31.8114 42.0337C31.9405 42.5212 32.0985 43.0006 32.2844 43.4693C31.5635 44.0559 31.4788 44.5909 31.6833 45.3076C31.8878 46.0243 31.9002 46.6626 33.28 46.8319C34.6597 47.0013 35.1348 47.0364 35.1348 47.0364Z" fill="#FF78B9"/>
<path d="M32.3722 43.4467C32.3146 43.4463 32.2586 43.4277 32.2121 43.3936C32.1654 43.3595 32.1309 43.3118 32.113 43.2569C32.0952 43.2021 32.0952 43.143 32.1128 43.0881C32.1303 43.0332 32.1648 42.9852 32.2111 42.951C34.4604 41.3171 36.4268 39.8527 36.4454 39.8362C36.4739 39.8108 36.5071 39.7915 36.5433 39.7798C36.5796 39.7678 36.6179 39.7637 36.6557 39.7674C36.6937 39.7713 36.7304 39.7829 36.7635 39.8015C36.7967 39.8203 36.8256 39.8454 36.8486 39.876C36.8713 39.9064 36.8876 39.9413 36.8963 39.9785C36.905 40.0154 36.9058 40.0541 36.8988 40.0915C36.8917 40.1288 36.8771 40.1644 36.8554 40.196C36.8339 40.2274 36.8062 40.254 36.7738 40.274C36.7531 40.2885 34.7847 41.7571 32.5333 43.395C32.4864 43.4289 32.43 43.4471 32.3722 43.4467Z" fill="black"/>
<path d="M14.1038 21.5918C13.8766 22.7134 14.1368 23.7131 14.6821 23.8247C15.1407 23.9155 15.5579 23.5355 15.7025 22.48C15.7707 22.0341 15.8806 21.5958 16.0309 21.1705C16.3449 20.2596 15.9586 19.8485 15.5022 19.7577C14.9569 19.6461 14.3289 20.4599 14.1038 21.5918Z" fill="black"/>
<path d="M24.3006 9.07422C25.2486 8.9854 26.583 9.61745 26.835 10.9476C27.0869 12.2778 27.2047 14.2525 24.976 14.3372C24.0341 14.3681 23.1315 13.8476 21.8034 12.5174C20.8491 11.5611 19.7378 11.1273 17.1167 12.0775C15.8939 11.0055 16.8564 8.73341 20.3162 10.3486C18.9777 8.13441 19.6325 6.76703 20.8057 6.51298C21.9789 6.25892 23.6706 6.66376 24.3006 9.07422Z" fill="#2A39D4"/>
<path d="M23.8175 12.9863C23.1379 11.9101 22.667 10.5448 22.2518 9.34063C21.8015 8.03109 21.4256 6.94669 20.8844 6.49847L20.7997 6.51293C20.5839 6.55775 20.38 6.64719 20.2007 6.77525C20.2588 6.75708 20.3203 6.75274 20.3804 6.76286C20.8948 6.8682 21.3347 8.14469 21.8015 9.49554C22.225 10.7349 22.7062 12.1187 23.4147 13.2424C23.6442 13.6006 23.9108 13.9335 24.2099 14.2359C24.4561 14.3109 24.7129 14.3452 24.97 14.3371H25.0155C24.5501 13.95 24.1463 13.4946 23.8175 12.9863Z" fill="black"/>
<path d="M26.5047 13.7156C26.3698 13.8734 26.2048 14.0027 26.0193 14.0956C26.1066 12.2691 25.5052 10.4764 24.3338 9.07227C24.5492 9.05802 24.7659 9.0762 24.9762 9.12598C25.9635 10.4529 26.4991 12.0615 26.5047 13.7156Z" fill="black"/>
<path d="M17.8414 37.7709H17.8084L15.1418 37.4446C15.0745 37.4303 15.015 37.3913 14.9749 37.3351C14.9351 37.2789 14.9177 37.21 14.9262 37.1416C14.9348 37.0732 14.9687 37.0106 15.0214 36.9662C15.0739 36.9216 15.1412 36.8985 15.21 36.9014L17.8745 37.2277C17.9468 37.2321 18.0145 37.2651 18.0625 37.3192C18.1106 37.3735 18.135 37.4446 18.1306 37.5169C18.1263 37.5892 18.0934 37.6567 18.0391 37.7048C17.9848 37.7528 17.9137 37.7773 17.8414 37.773V37.7709Z" fill="black"/>
<path d="M16.5408 20.6414L14.8636 21.2156L16.956 22.4735L16.5408 20.6414Z" fill="white"/>
<path d="M29.5928 23.25C29.5449 23.2496 29.4978 23.237 29.4563 23.213C29.4146 23.1891 29.3799 23.155 29.3553 23.1137C29.3326 23.0724 28.7129 22.0809 26.9965 22.0809C26.9242 22.0836 26.8538 22.0576 26.8007 22.0084C26.7476 21.9593 26.7162 21.8909 26.7135 21.8186C26.7108 21.7463 26.7368 21.6759 26.786 21.6228C26.8354 21.5697 26.9035 21.5383 26.9758 21.5356C28.368 21.4262 28.9876 20.8437 29.3326 20.4141C29.3799 20.363 29.4445 20.3319 29.5139 20.3267C29.5831 20.3215 29.6519 20.3428 29.7062 20.3864C29.7604 20.4298 29.7961 20.4921 29.8062 20.5609C29.8161 20.6297 29.7998 20.6997 29.7601 20.7569C29.4018 21.2062 28.9337 21.5555 28.401 21.7711C28.9827 21.9642 29.4848 22.3431 29.8304 22.8493C29.8665 22.9121 29.8764 22.9867 29.8578 23.0567C29.8393 23.1267 29.7938 23.1866 29.7312 23.2232C29.6883 23.2438 29.6406 23.2531 29.5928 23.25Z" fill="black"/>
</g>
<defs>
<clipPath id="clip0_277_3908">
<rect width="45" height="45" rx="22.5" fill="white"/>
</clipPath>
</defs>
</svg>

<svg xmlns="http://www.w3.org/2000/svg" width="45" height="45" fill="none"><g clip-path="url(#a)"><rect width="45" height="45" fill="#FFE75C" rx="22.5"/><path fill="#2A39D4" d="M18.26 14.62c.4-1.15-.25-2.41-1.43-2.81-1.18-.4-2.45.2-2.84 1.35-.4 1.15.24 2.4 1.42 2.81 1.18.4 2.46-.2 2.85-1.35Z"/><path fill="#2331B5" d="M30.74 36.8c1.97.32 4.24 1.45 6.83 5.12 1.88-1.47 2.66-.93 4.67 1.28 2 2.21 6.4 6.46 7.44 7.83 1.03 1.38 1.63 4.13-1.86 5.72-3.5 1.58-8.87-2.78-11.64-5.27-2.78-2.48-6.57-5.46-6.57-5.46l1.13-9.23Z"/><path fill="#3442D9" d="M41.43 42.34c.52 1.19 1.2 2.9 1.49 4.34.4 2.03-.54 3.09-2.3 4.22-1.59 1.03-2.38.76-3.15-.02a.24.24 0 0 0-.34.33c.39.44.91.72 1.48.82.66.08 1.4-.17 2.27-.73 1.54-1 3-2.18 2.5-4.71-.2-.93-.46-1.83-.8-2.71a2.84 2.84 0 0 0-.6-.95c-.19-.22-.42-.46-.55-.59Z"/><path fill="#FF78B9" d="M23.51 35.12c7.28-1.15 12.34-7.4 11.3-13.94-1.03-6.55-7.77-10.93-15.04-9.78-7.28 1.15-12.34 7.4-11.3 13.94 1.03 6.55 7.77 10.93 15.04 9.78Z"/><path fill="#fff" d="M12.52 21.23c-.32 2.62.65 5.09 2.17 5.52 1.34.39 2.06-.9 2.42-3.41.1-.66.21-1.31.33-1.96.45-2.34-.24-3.7-1.6-4.09-1.51-.43-3 1.33-3.32 3.94Z"/><path fill="#D11583" d="M24.03 22.81a2.27 2.27 0 0 1 .14-2.5c2.6-3.43 4.6-3.31 6.03-3.07 1.57.28 2.32 1.72.75 4.95 1.44 2 .54 3.56-1.86 3.51-2.07-.06-3.63-.42-5.06-2.89Z"/><path fill="#2331B5" d="M35.13 60.94c1.43-8.89-1.28-10.38-1.23-13.06.05-2.68.22-6.3-2.24-10.53 0 0 .77-3.57 1.27-5.98a.63.63 0 0 0-.64-.76 30.5 30.5 0 0 1-5.8-.36c-3.31-.5-7.76-1.39-13.11 2.68l1.3 2.37-.14.17a1.05 1.05 0 0 0 .36 1.56l.28.14s-4.69 2.1-4.1 8.2c.57 6.11-1.52 11.7.46 13.74a3.39 3.39 0 0 0 3.15.93l9.42 6.59c3.18 4.5 7.82 9.67 7.82 9.67l-5.19 9.11 7.16-6.08c4.7-8.43 6.28.73 7.62-3.17 1.34-3.9-1.08-6.62-6.4-15.22Z"/><path fill="#3442D9" d="M32.84 31.82c-2.02.41-4.58.08-7.6-.37-3.26-.5-6.1-.93-11.57 2.01l.68 1.26c5.05-2.71 7.55-2.33 10.67-1.86 2.89.44 5.38.75 7.5.46l.32-1.5Z"/><path fill="#000" d="M27.95 59.61a.24.24 0 0 0 .27-.2c.6-4.36-.53-9.01-1.04-10.82a18.13 18.13 0 0 1-.64-5.7c.1-2.5-.19-4.5-.42-5.28l1.8-7.18-.49-.06-1.81 7.25.02.06c.2.68.51 2.69.41 5.2-.09 1.97.13 3.94.67 5.85.5 1.77 1.6 6.35 1.03 10.61a.23.23 0 0 0 .04.18.23.23 0 0 0 .16.1Z"/><path fill="#2331B5" d="M21.61 59.3c.14-.82-.57-3.91-1.6-6.22-1.04-2.3-1.52-3.9-2.83-3.35-1.3.56-4.38 2.07-4.38 2.07s2.57-2.74 4-4.4c3.12-3.64 2.89-9.22-1.62-10.21-3.97 1.6-4.77 3.3-9.04 9.08-4.28 5.79-7.2 12.2-3.75 15.38 3.45 3.19 7.37 1.76 14.6-.4 3.1-.93 4.49-1.13 4.62-1.94"/><path fill="#66BCFF" d="M35.95 39.73a.55.55 0 0 1-.54-.54 95.1 95.1 0 0 1 1.13-17.28.6.6 0 0 0-.7-.7l-6.98 1.07a.55.55 0 1 1-.17-1.08l7-1.08a1.7 1.7 0 0 1 1.93 1.96 93.98 93.98 0 0 0-1.12 17.09.55.55 0 0 1-.53.56h-.02Z"/><path fill="#fff" d="M31.53 39.12c.52 1.32 1.42 3.7 1.58 4.45-.06 1.15-.35 3.1-.45 3.72a.22.22 0 0 0 .16.24c1.82.51 2.62.65 3.38.63a22.82 22.82 0 0 0 2.74-.37.32.32 0 0 0 .15-.33c-.43-2.3-.68-3.99-.68-3.99.19-2.77.44-4.96.53-5.7a.29.29 0 0 0-.23-.32c-2.5-.46-3.39-.58-4.32-.63-.93-.04-1.3.45-2.74 1.81a.45.45 0 0 0-.12.49Z"/><path fill="#FFC619" d="M38.78 47.6s.28.15.05.23a.31.31 0 0 0 .2-.13.32.32 0 0 0 .06-.24c-.43-2.31-.68-3.99-.68-3.99.19-2.78.44-4.96.53-5.7a.28.28 0 0 0-.23-.32c-2.5-.46-3.39-.59-4.32-.63-.2-.01-.4 0-.58.06l1.77 5.34-.73 4.65 3.93.73Z"/><path fill="#FF78B9" d="M35.13 47.04c.27 1.7.53 2.92 1.52 3.27 1 .34 2.37-.56 4.15-1.95 1.77-1.4 1.38-2.8.85-4.12-.54-1.32-.44-2.91-1.2-3.67-.95-.88-2-1.68-3.1-2.36-.91-.55-1.47-.62-3.13.85-1.66 1.46-2.58 2.3-2.4 2.97.12.5.28.97.46 1.44-.72.59-.8 1.12-.6 1.84.2.71.22 1.35 1.6 1.52 1.38.17 1.85.2 1.85.2Z"/><path fill="#000" d="M32.37 43.45a.27.27 0 0 1-.16-.5 410.86 410.86 0 0 0 4.33-3.17.27.27 0 0 1 .36.2.27.27 0 0 1-.13.3c-.02 0-1.99 1.48-4.24 3.12a.27.27 0 0 1-.16.05ZM14.1 21.6c-.22 1.11.04 2.11.58 2.22.46.1.88-.28 1.02-1.34.07-.45.18-.88.33-1.3.31-.92-.07-1.33-.53-1.42-.54-.11-1.17.7-1.4 1.83Z"/><path fill="#2A39D4" d="M24.3 9.07c.95-.08 2.28.55 2.54 1.88.25 1.33.36 3.3-1.86 3.39-.95.03-1.85-.5-3.18-1.82-.95-.96-2.06-1.4-4.68-.44-1.23-1.07-.26-3.35 3.2-1.73-1.34-2.22-.69-3.58.49-3.84 1.17-.25 2.86.15 3.5 2.56Z"/><path fill="#000" d="M23.82 12.99a17.94 17.94 0 0 1-1.57-3.65c-.45-1.3-.82-2.4-1.37-2.84l-.08.01c-.22.05-.42.14-.6.27a.39.39 0 0 1 .18-.02c.51.1.95 1.38 1.42 2.74.43 1.23.9 2.62 1.61 3.74.23.36.5.7.8 1 .25.07.5.1.76.1h.05a5.98 5.98 0 0 1-1.2-1.35ZM26.5 13.72c-.13.15-.3.28-.48.38a7.3 7.3 0 0 0-1.69-5.03c.22-.01.44 0 .65.06a7.73 7.73 0 0 1 1.52 4.59ZM17.84 37.77h-.03l-2.67-.33a.28.28 0 0 1 .07-.54l2.66.33a.27.27 0 0 1-.03.54Z"/><path fill="#fff" d="m16.54 20.64-1.68.58 2.1 1.25-.42-1.83Z"/><path fill="#000" d="M29.6 23.25a.28.28 0 0 1-.24-.14c-.03-.04-.65-1.03-2.36-1.03a.27.27 0 0 1-.02-.54c1.39-.11 2-.7 2.35-1.13a.27.27 0 0 1 .43.35c-.36.45-.83.8-1.36 1.01.58.2 1.08.57 1.43 1.08a.27.27 0 0 1-.1.37.28.28 0 0 1-.14.03Z"/></g><defs><clipPath id="a"><rect width="45" height="45" fill="#fff" rx="22.5"/></clipPath></defs></svg>
